X: 186
P: Longways for as many as will.
M: C|
L: 1/8
K: G
V: 1
(dB)(AG) (DE)(GA) | {c}B2AG g3d | (ef)(gd) (ga)(bd) | (cB)(AG) TG3 :|
|: b/a/ |\
g3a (ba)(ge) | (dB)(de) g3G | (AB)(ge) (cB)(AG) | c2Bc A3e |\
(dB)(AG) (DE)(GA) | {c}B2AG g3d | (ef)(gd) (ga)(bd) | cBAG G3 :|
V: 2 clef=bass middle=d
z |\
gabc' b3a | g2d2 B2d2 | G2z2 B2d2 | f2g2 dedc |\
|: z |\
gGBd g2c2 | B2zc GABG | c2B2 A4   | afgc dedc |\

